X:343
T:Pentozalis (song version)
Z:Jack Campin, http://www.campin.me.uk/
F:Jack Campin's Nine-Note Tunebook
% last edit 27-02-2013
S:Karpeles, Folk Songs of Europe
G:Cretan dance for the lyra
M:2/4
L:1/8
Q:1/4=180
K:DDor
E|CC  F>F|EE CD |EC  FE |D2 .D
E|CC  F>F|EE CD |EC  F>E|D2 .D||
A|A>G FE |FG A>F|G>F EC |D2 .D
A|A>G FE |FG A>F|G>F EC |D2  D|]

